kaffeemaschinen-schild.svg

<?xml version="1.0" encoding="UTF-8" standalone="no"?>
<!-- Created with Inkscape (http://www.inkscape.org/) -->

<svg
   xmlns:dc="http://purl.org/dc/elements/1.1/"
   xmlns:cc="http://creativecommons.org/ns#"
   xmlns:rdf="http://www.w3.org/1999/02/22-rdf-syntax-ns#"
   xmlns:svg="http://www.w3.org/2000/svg"
   xmlns="http://www.w3.org/2000/svg"
   xmlns:sodipodi="http://sodipodi.sourceforge.net/DTD/sodipodi-0.dtd"
   xmlns:inkscape="http://www.inkscape.org/namespaces/inkscape"
   width="210mm"
   height="297mm"
   viewBox="0 0 210 297"
   version="1.1"
   id="svg893"
   inkscape:version="0.92.3 (2405546, 2018-03-11)"
   sodipodi:docname="kaffeemaschinen-schild.svg">
  <defs
     id="defs887" />
  <sodipodi:namedview
     id="base"
     pagecolor="#ffffff"
     bordercolor="#666666"
     borderopacity="1.0"
     inkscape:pageopacity="0.0"
     inkscape:pageshadow="2"
     inkscape:zoom="0.7"
     inkscape:cx="41.395253"
     inkscape:cy="531.62785"
     inkscape:document-units="mm"
     inkscape:current-layer="g1757"
     showgrid="false"
     inkscape:window-width="1920"
     inkscape:window-height="1025"
     inkscape:window-x="1920"
     inkscape:window-y="0"
     inkscape:window-maximized="1" />
  <metadata
     id="metadata890">
    <rdf:RDF>
      <cc:Work
         rdf:about="">
        <dc:format>image/svg+xml</dc:format>
        <dc:type
           rdf:resource="http://purl.org/dc/dcmitype/StillImage" />
        <dc:title />
      </cc:Work>
    </rdf:RDF>
  </metadata>
  <g
     inkscape:label="Layer 1"
     inkscape:groupmode="layer"
     id="layer1">
    <g
       id="g1731"
       transform="translate(9.3974152)">
      <rect
         y="13.517858"
         x="15.875"
         height="163.56265"
         width="159.45517"
         id="rect1654"
         style="fill:#009a3b;fill-opacity:1;stroke:none;stroke-width:1.32655239;stroke-linecap:round;stroke-linejoin:bevel;stroke-miterlimit:4;stroke-dasharray:none;stroke-opacity:1" />
      <g
         style="fill:#ffffff"
         transform="matrix(0.23644704,0,0,0.23644704,24.87387,46.055201)"
         id="g1517">
        <g
           style="fill:#ffffff"
           id="g1442">
          <g
             style="fill:#ffffff"
             id="g1440">
            <path
               style="fill:#ffffff"
               inkscape:connector-curvature="0"
               d="m 179.361,99.903 c -11.41,-11.41 -16.454,-17.005 -16.452,-30.089 -0.002,-13.079 5.044,-18.674 16.457,-30.089 9.089,-9.087 9.089,-23.82 0.002,-32.909 -9.087,-9.09 -23.825,-9.087 -32.914,-0.002 -12.699,12.698 -30.095,30.09 -30.09,62.999 -0.005,32.914 17.388,50.305 30.089,63.001 11.411,11.413 16.457,17.011 16.457,30.092 0,12.854 10.42,23.273 23.273,23.273 12.853,0 23.273,-10.418 23.273,-23.273 -0.002,-32.913 -17.394,-50.305 -30.095,-63.003 z"
               id="path1438" />
          </g>
        </g>
        <g
           style="fill:#ffffff"
           id="g1448">
          <g
             style="fill:#ffffff"
             id="g1446">
            <path
               style="fill:#ffffff"
               inkscape:connector-curvature="0"
               d="m 287.967,99.903 c -11.41,-11.41 -16.454,-17.005 -16.452,-30.089 -0.002,-13.079 5.044,-18.674 16.457,-30.089 9.089,-9.087 9.089,-23.82 0.002,-32.909 -9.087,-9.09 -23.825,-9.087 -32.914,-0.002 -12.699,12.698 -30.095,30.092 -30.09,62.999 -0.005,32.914 17.388,50.305 30.089,63.001 11.411,11.413 16.457,17.011 16.457,30.092 0,12.854 10.42,23.273 23.273,23.273 12.853,0 23.273,-10.418 23.273,-23.273 -0.001,-32.913 -17.394,-50.305 -30.095,-63.003 z"
               id="path1444" />
          </g>
        </g>
        <g
           style="fill:#ffffff"
           id="g1454">
          <g
             style="fill:#ffffff"
             id="g1452">
            <path
               style="fill:#ffffff"
               inkscape:connector-curvature="0"
               d="m 381.401,403.393 h 21.993 c 0.022,0 0.039,-0.003 0.061,-0.003 47.023,-0.031 85.273,-38.298 85.273,-85.331 0,-47.053 -38.281,-85.334 -85.334,-85.334 H 372.364 62.06 c -12.853,0 -23.273,10.422 -23.273,23.273 v 77.576 c 0,52.193 22.528,99.221 58.37,131.879 H 46.545 c -12.853,0 -23.273,10.418 -23.273,23.273 0,12.851 10.42,23.273 23.273,23.273 h 170.667 170.667 c 12.853,0 23.273,-10.422 23.273,-23.273 0,-12.854 -10.42,-23.273 -23.273,-23.273 h -50.612 c 18.837,-17.164 33.99,-38.295 44.134,-62.06 z m 14.236,-69.818 v -54.303 h 7.758 c 21.388,0 38.788,17.4 38.788,38.788 0,21.388 -17.4,38.788 -38.788,38.788 -0.011,0 -0.02,0 -0.031,0 h -9.245 c 0.996,-7.619 1.518,-15.387 1.518,-23.273 z"
               id="path1450" />
          </g>
        </g>
        <g
           style="fill:#ffffff"
           id="g1456" />
        <g
           style="fill:#ffffff"
           id="g1458" />
        <g
           style="fill:#ffffff"
           id="g1460" />
        <g
           style="fill:#ffffff"
           id="g1462" />
        <g
           style="fill:#ffffff"
           id="g1464" />
        <g
           style="fill:#ffffff"
           id="g1466" />
        <g
           style="fill:#ffffff"
           id="g1468" />
        <g
           style="fill:#ffffff"
           id="g1470" />
        <g
           style="fill:#ffffff"
           id="g1472" />
        <g
           style="fill:#ffffff"
           id="g1474" />
        <g
           style="fill:#ffffff"
           id="g1476" />
        <g
           style="fill:#ffffff"
           id="g1478" />
        <g
           style="fill:#ffffff"
           id="g1480" />
        <g
           style="fill:#ffffff"
           id="g1482" />
        <g
           style="fill:#ffffff"
           id="g1484" />
      </g>
      <path
         sodipodi:nodetypes="ccccccccccccscccccc"
         style="fill:#009a3b;fill-rule:evenodd;stroke-width:0.10144585;image-rendering:optimizeQuality;shape-rendering:geometricPrecision;text-rendering:geometricPrecision"
         inkscape:connector-curvature="0"
         id="path876"
         d="m 77.194677,153.40631 c 2.13037,-1.1159 4.97085,-3.04337 7.81133,-5.57952 3.04338,-2.53615 5.37663,-4.97085 7.506988,-7.60844 2.739022,-3.24627 4.666483,-6.59398 5.17371,-9.13013 0.202887,-1.31879 0.202887,-3.65205 0,-5.07229 -0.507227,-2.73904 -1.623131,-5.27519 -3.347702,-7.3041 -2.028908,-2.53615 -4.869376,-4.05784 -7.608416,-4.15928 -1.92747,-0.10145 -3.75349,0.30433 -5.57952,1.21735 -1.52169,0.71012 -2.63759,1.42024 -3.85494,2.63759 -0.40578,0.50723 -0.81157,0.81156 -0.81157,0.81156 0,0 -0.40578,-0.30433 -0.81156,-0.71012 -1.92748,-1.92747 -4.15929,-3.24626 -6.59399,-3.75349 -3.246264,-0.71012 -6.086748,0 -8.724341,2.02891 -2.739038,2.33326 -4.767955,6.08676 -5.275184,9.9417 -0.202892,1.62313 -0.101446,3.55061 0.304337,4.8694 0.913013,3.55061 3.854943,8.01422 8.622898,12.68073 3.85494,3.85494 8.42001,7.40555 11.66628,9.13013 0.40578,0.10145 0.71012,0.30434 0.81156,0.30434 0,0 0.30434,-0.10145 0.71012,-0.30434 z"
         class="fil1" />
      <path
         sodipodi:nodetypes="ccccccccscccccscscccscccc"
         style="fill:#ffffff;fill-opacity:1;fill-rule:evenodd;stroke-width:0.26458332;image-rendering:optimizeQuality;shape-rendering:geometricPrecision;text-rendering:geometricPrecision"
         inkscape:connector-curvature="0"
         id="path876-3"
         d="m 152.80564,55.243292 v -7.408333 l 7.67292,-0.264583 h 7.9375 v -6.35 -6.35 h -7.67292 c -5.82083,0 -7.67292,-0.264584 -7.9375,-0.264584 v -7.672916 -7.672917 h -7.14375 -6.87917 v 7.408333 c 0,6.614584 0,7.672917 -0.26458,7.9375 0,0.264584 -1.05833,0.264584 -7.9375,0.264584 h -7.67292 v 6.35 6.35 h 7.9375 c 6.87917,0 7.67292,0 7.9375,0.264583 v 7.672917 7.14375 h 6.87917 6.87917 z"
         class="fil1" />
    </g>
    <g
       id="g1757"
       transform="translate(0,12.85119)">
      <rect
         y="192.00125"
         x="20.307571"
         height="64.280777"
         width="169.38486"
         id="rect1701"
         style="fill:none;fill-opacity:1;stroke:#ff0000;stroke-width:8;stroke-linecap:square;stroke-linejoin:miter;stroke-miterlimit:4;stroke-dasharray:none;stroke-opacity:1" />
      <text
         id="text1739"
         y="213.5197"
         x="27.612825"
         style="font-style:normal;font-variant:normal;font-weight:normal;font-stretch:normal;font-size:9.8777771px;line-height:1.25;font-family:sans-serif;-inkscape-font-specification:sans-serif;letter-spacing:0px;word-spacing:0px;fill:#000000;fill-opacity:1;stroke:none;stroke-width:0.26458332"
         xml:space="preserve"><tspan
           id="tspan1741"
           style="font-style:normal;font-variant:normal;font-weight:bold;font-stretch:normal;font-family:sans-serif;-inkscape-font-specification:'sans-serif Bold';stroke-width:0.26458332"
           y="213.5197"
           x="27.612825"
           sodipodi:role="line">Lebenswichtige Einrichtung</tspan></text>
      <text
         id="text1747"
         y="231.53337"
         x="105.05064"
         style="font-style:italic;font-variant:normal;font-weight:normal;font-stretch:normal;font-size:9.8777771px;line-height:1.25;font-family:'Latin Modern Roman';-inkscape-font-specification:'Latin Modern Roman, Italic';letter-spacing:0px;word-spacing:0px;fill:#000000;fill-opacity:1;stroke:none;stroke-width:0.26458332"
         xml:space="preserve"><tspan
           style="font-style:normal;font-variant:normal;font-weight:normal;font-stretch:normal;font-family:sans-serif;-inkscape-font-specification:sans-serif;text-align:center;text-anchor:middle;stroke-width:0.26458332"
           y="231.53337"
           x="105.05064"
           id="tspan1745"
           sodipodi:role="line">Blockieren, verstellen, o.ä.</tspan><tspan
           id="tspan1749"
           style="font-style:normal;font-variant:normal;font-weight:normal;font-stretch:normal;font-family:sans-serif;-inkscape-font-specification:sans-serif;text-align:center;text-anchor:middle;stroke-width:0.26458332"
           y="244.33728"
           x="105.05064"
           sodipodi:role="line">strengstens verboten!</tspan></text>
    </g>
  </g>
</svg>

<?xml version="1.0" encoding="UTF-8" standalone="no"?>
<!DOCTYPE svg PUBLIC "-//W3C//DTD SVG 1.1//EN" "http://www.w3.org/Graphics/SVG/1.1/DTD/svg11.dtd">
<svg width="100%" height="100%" viewBox="0 0 210 297" version="1.1" xmlns="http://www.w3.org/2000/svg" xmlns:xlink="http://www.w3.org/1999/xlink" xml:space="preserve" style="fill-rule:evenodd;clip-rule:evenodd;">
    <g id="Layer-1">
        <g id="g1731" transform="matrix(1,0,0,1,9.39742,0)">
            <rect id="rect1654" x="15.875" y="13.518" width="159.455" height="163.563" style="fill:rgb(0,154,59);"/>
            <g id="g1517" transform="matrix(0.236447,0,0,0.236447,24.8739,46.0552)">
                <path id="path1438" d="M179.361,99.903C167.951,88.493 162.907,82.898 162.909,69.814C162.907,56.735 167.953,51.14 179.366,39.725C188.455,30.638 188.455,15.905 179.368,6.816C170.281,-2.274 155.543,-2.271 146.454,6.814C133.755,19.512 116.359,36.904 116.364,69.813C116.359,102.727 133.752,120.118 146.453,132.814C157.864,144.227 162.91,149.825 162.91,162.906C162.91,175.76 173.33,186.179 186.183,186.179C199.036,186.179 209.456,175.761 209.456,162.906C209.454,129.993 192.062,112.601 179.361,99.903Z" style="fill:white;fill-rule:nonzero;"/>
                <path id="path1444" d="M287.967,99.903C276.557,88.493 271.513,82.898 271.515,69.814C271.513,56.735 276.559,51.14 287.972,39.725C297.061,30.638 297.061,15.905 287.974,6.816C278.887,-2.274 264.149,-2.271 255.06,6.814C242.361,19.512 224.965,36.906 224.97,69.813C224.965,102.727 242.358,120.118 255.059,132.814C266.47,144.227 271.516,149.825 271.516,162.906C271.516,175.76 281.936,186.179 294.789,186.179C307.642,186.179 318.062,175.761 318.062,162.906C318.061,129.993 300.668,112.601 287.967,99.903L287.967,99.903Z" style="fill:white;fill-rule:nonzero;"/>
                <path id="path1450" d="M381.401,403.393L403.394,403.393C403.416,403.393 403.433,403.39 403.455,403.39C450.478,403.359 488.728,365.092 488.728,318.059C488.728,271.006 450.447,232.725 403.394,232.725L372.364,232.725L62.06,232.725C49.207,232.725 38.787,243.147 38.787,255.998L38.787,333.574C38.787,385.767 61.315,432.795 97.157,465.453L46.545,465.453C33.692,465.453 23.272,475.871 23.272,488.726C23.272,501.577 33.692,511.999 46.545,511.999L387.879,511.999C400.732,511.999 411.152,501.577 411.152,488.726C411.152,475.872 400.732,465.453 387.879,465.453L337.267,465.453C356.104,448.289 371.257,427.158 381.401,403.393ZM395.637,333.575L395.637,279.272L403.395,279.272C424.783,279.272 442.183,296.672 442.183,318.06C442.183,339.448 424.783,356.848 403.395,356.848C403.384,356.848 403.375,356.848 403.364,356.848L394.119,356.848C395.115,349.229 395.637,341.461 395.637,333.575L395.637,333.575Z" style="fill:white;fill-rule:nonzero;"/>
            </g>
            <path id="path876" d="M77.195,153.406C79.325,152.29 82.166,150.363 85.006,147.827C88.049,145.291 90.383,142.856 92.513,140.218C95.252,136.972 97.179,133.624 97.687,131.088C97.89,129.769 97.89,127.436 97.687,126.016C97.179,123.277 96.064,120.741 94.339,118.712C92.31,116.176 89.47,114.654 86.731,114.553C84.803,114.451 82.977,114.857 81.151,115.77C79.629,116.48 78.513,117.19 77.296,118.407C76.89,118.915 76.485,119.219 76.485,119.219C76.485,119.219 76.079,118.915 75.673,118.509C73.746,116.581 71.514,115.263 69.079,114.755C65.833,114.045 62.992,114.755 60.355,116.784C57.616,119.118 55.587,122.871 55.079,126.726C54.877,128.349 54.978,130.277 55.384,131.595C56.297,135.146 59.239,139.61 64.007,144.276C67.862,148.131 72.427,151.682 75.673,153.406C76.079,153.508 76.383,153.711 76.485,153.711C76.485,153.711 76.789,153.609 77.195,153.406L77.195,153.406Z" style="fill:rgb(0,154,59);stroke:black;stroke-width:0.1px;"/>
            <path id="path876-3" d="M152.806,55.243L152.806,47.835L160.479,47.57L168.416,47.57L168.416,41.22L168.416,34.87L160.743,34.87C154.922,34.87 153.07,34.606 152.806,34.606L152.806,26.933L152.806,19.26L145.662,19.26L138.783,19.26L138.783,26.668C138.783,33.283 138.783,34.341 138.518,34.606C138.518,34.87 137.46,34.87 130.581,34.87L122.908,34.87L122.908,47.57L130.845,47.57C137.724,47.57 138.518,47.57 138.783,47.835L138.783,62.652L152.541,62.652L152.806,55.243Z" style="fill:white;stroke:black;stroke-width:0.26px;"/>
        </g>
        <g id="g1757" transform="matrix(1,0,0,1,0,12.8512)">
            <path id="rect1701" d="M193.692,260.282L16.308,260.282L16.308,188.001L193.692,188.001L193.692,260.282ZM24.308,196.001L24.308,252.282L185.692,252.282L185.692,196.001L24.308,196.001Z" style="fill:rgb(255,0,0);"/>
            <g transform="matrix(1,0,0,1,34.6184,213.52)">
                <g id="text1739">
                    <text x="0px" y="0px" style="font-family:'LucidaGrande-Bold', 'Lucida Grande', sans-serif;font-weight:600;font-size:9.878px;">Lebenswichtige Einrichtung</text>
                </g>
            </g>
            <g id="text1747" transform="matrix(1,0,0,1,-0.05064,0)">
                <g transform="matrix(1,0,0,1,105.051,231.533)">
                    <text x="-62.99px" y="0px" style="font-family:'LucidaGrande', 'Lucida Grande', sans-serif;font-weight:500;font-size:9.878px;">Blockieren, verstellen, o.ä.</text>
                </g>
                <g transform="matrix(1,0,0,1,105.051,244.337)">
                    <text x="-52.242px" y="0px" style="font-family:'LucidaGrande', 'Lucida Grande', sans-serif;font-weight:500;font-size:9.878px;">strengstens verboten!</text>
                </g>
            </g>
        </g>
    </g>
</svg>
